packages/kaspersky-hexa-ui-icons/src/iconsSVGs/16/ClusterK8S.svg

<svg width="16" height="16" viewBox="0 0 16 16" fill="none" xmlns="http://www.w3.org/2000/svg">
<g clip-path="url(#clip0_30897_265)">
<path fill-rule="evenodd" clip-rule="evenodd" d="M8.00002 0.283691C8.359 0.283691 8.65002 0.574706 8.65002 0.933691V1.38144C10.2589 1.53745 11.6999 2.26676 12.7663 3.36251L13.1358 3.06786C13.4165 2.84404 13.8254 2.89012 14.0492 3.17078C14.2731 3.45145 14.227 3.86042 13.9463 4.08424L13.5781 4.37789C14.2562 5.42004 14.6502 6.66406 14.6502 8.0001C14.6502 8.2826 14.6326 8.56098 14.5984 8.83421L15.0673 8.94122C15.4173 9.0211 15.6362 9.36958 15.5564 9.71956C15.4765 10.0695 15.128 10.2885 14.778 10.2086L14.3112 10.1021C13.8109 11.605 12.7887 12.8695 11.4596 13.6806L11.6498 14.0756C11.8056 14.3991 11.6696 14.7875 11.3462 14.9433C11.0228 15.0991 10.6343 14.9631 10.4785 14.6397L10.2889 14.2458C9.5753 14.5073 8.80444 14.6501 8.00024 14.6501C7.1959 14.6501 6.42491 14.5073 5.71125 14.2457L5.52149 14.6397C5.36573 14.9631 4.97727 15.0991 4.65384 14.9433C4.3304 14.7875 4.19447 14.3991 4.35023 14.0756L4.54057 13.6804C3.2116 12.8692 2.18953 11.6048 1.68925 10.102L1.22203 10.2086C0.872043 10.2885 0.523567 10.0695 0.443686 9.71956C0.363804 9.36958 0.582765 9.0211 0.93275 8.94122L1.40203 8.83411C1.36785 8.56091 1.35024 8.28256 1.35024 8.0001C1.35024 6.66415 1.74418 5.42022 2.42223 4.37812L2.05371 4.08424C1.77305 3.86042 1.72697 3.45145 1.95079 3.17078C2.17462 2.89012 2.58358 2.84404 2.86425 3.06786L3.23398 3.36271C4.3003 2.26695 5.74125 1.5376 7.35002 1.38148V0.933691C7.35002 0.574706 7.64103 0.283691 8.00002 0.283691ZM7.35002 5.7933V2.68921C6.15182 2.83439 5.07571 3.37565 4.25653 4.17817L6.60078 6.04764C6.6284 6.06967 6.65374 6.09348 6.67678 6.11879C6.87951 5.97591 7.10636 5.86497 7.35002 5.7933ZM8.65002 5.79317C8.89094 5.86399 9.11544 5.97318 9.31644 6.11369L11.7438 4.17797C10.9245 3.37546 9.8483 2.83424 8.65002 2.68916V5.79317ZM10.1292 7.12826C10.2217 7.35382 10.2794 7.59732 10.2956 7.85211L13.323 8.54311C13.341 8.36455 13.3502 8.1834 13.3502 8.0001C13.3502 6.9707 13.0595 6.0092 12.5557 5.19324L10.1292 7.12826ZM10.0095 9.12025C9.88692 9.33967 9.72943 9.53694 9.54455 9.70455C9.54717 9.70965 9.54974 9.7148 9.55224 9.72L10.892 12.502C11.8733 11.8704 12.6347 10.9266 13.036 9.81102L10.0095 9.12025ZM8.37433 10.2698C8.25258 10.2897 8.12762 10.3001 8.00024 10.3001C7.87278 10.3001 7.74774 10.2897 7.62593 10.2698L6.2788 13.0671C6.81901 13.2506 7.39801 13.3501 8.00024 13.3501C8.60233 13.3501 9.1812 13.2506 9.7213 13.0673L8.38098 10.2841C8.3787 10.2793 8.37649 10.2746 8.37433 10.2698ZM6.45545 9.70412C6.27075 9.53658 6.11341 9.33943 5.99092 9.12016L2.96447 9.81093C3.36566 10.9264 4.12696 11.8701 5.10816 12.5018L6.45545 9.70412ZM5.70493 7.852C5.72129 7.59452 5.78002 7.34855 5.87423 7.12099C5.84524 7.10446 5.81715 7.08548 5.79025 7.06403L3.44465 5.19348C2.94091 6.00939 2.65024 6.9708 2.65024 8.0001C2.65024 8.18337 2.65946 8.36448 2.67745 8.54301L5.70493 7.852ZM9.00024 8.0001C9.00024 8.55238 8.55252 9.0001 8.00024 9.0001C7.44796 9.0001 7.00024 8.55238 7.00024 8.0001C7.00024 7.44781 7.44796 7.0001 8.00024 7.0001C8.55252 7.0001 9.00024 7.44781 9.00024 8.0001Z" fill="black"/>
</g>
<defs>
<clipPath id="clip0_30897_265">
<rect width="16" height="16" fill="white"/>
</clipPath>
</defs>
</svg>

<svg xmlns="http://www.w3.org/2000/svg" width="16" height="16" fill="none" viewBox="0 0 16 16"><path fill="#000" fill-rule="evenodd" d="M7.9998.2836a.65.65 0 0 1 .65.65v.4477c1.6088.156 3.0499.8853 4.1163 1.981l.3694-.2946a.65.65 0 0 1 .8106 1.0164l-.3682.2937C14.256 5.4199 14.65 6.6639 14.65 8c0 .2825-.0176.5609-.0518.834l.4688.1071a.65.65 0 1 1-.2892 1.2674l-.4668-.1065c-.5004 1.5029-1.5226 2.7674-2.8517 3.5785l.1903.395a.6501.6501 0 0 1-1.1713.5641l-.1897-.3939A6.64 6.64 0 0 1 8 14.65a6.64 6.64 0 0 1-2.289-.4045l-.1898.3941a.65.65 0 0 1-1.1712-.5641l.1903-.3952c-1.329-.8112-2.351-2.0756-2.8513-3.5784l-.4672.1066a.65.65 0 0 1-.2893-1.2674l.4693-.1071A6.7 6.7 0 0 1 1.35 8c0-1.336.394-2.5799 1.072-3.622l-.3685-.2939a.65.65 0 1 1 .8105-1.0164l.3697.2949c1.0664-1.0958 2.5073-1.8251 4.116-1.9812V.9336a.65.65 0 0 1 .65-.65m-.65 5.5096V2.689c-1.1982.1452-2.2743.6864-3.0935 1.489l2.3442 1.8694a.66.66 0 0 1 .076.0712 2.29 2.29 0 0 1 .6733-.3255m1.3-.0002c.2409.0709.4654.18.6664.3206l2.4273-1.9357c-.8193-.8026-1.8954-1.3438-3.0937-1.4889zm1.4792 1.3351a2.29 2.29 0 0 1 .1663.7239l3.0275.691A5.4 5.4 0 0 0 13.35 8c0-1.0294-.2907-1.991-.7946-2.8069zm-.1197 1.992a2.31 2.31 0 0 1-.465.5843l.0077.0155 1.3397 2.782c.9814-.6317 1.7428-1.5754 2.144-2.691zM8.374 10.2696a2.32 2.32 0 0 1-.7484 0l-1.347 2.7974A5.34 5.34 0 0 0 8 13.35c.602 0 1.181-.0995 1.721-.2829l-1.3403-2.7832zM6.4552 9.704a2.31 2.31 0 0 1-.4645-.584l-3.0265.6908c.4012 1.1155 1.1625 2.0592 2.1437 2.6909zm-.7505-1.8521a2.29 2.29 0 0 1 .1693-.731.65.65 0 0 1-.084-.057L3.4444 5.1934C2.9407 6.0093 2.65 6.9707 2.65 8q.0001.275.0272.5429zM9 7.9999c0 .5524-.4477 1-1 1s-1-.4476-1-1c0-.5522.4477-1 1-1s1 .4478 1 1"/></svg>
